!!! OTL: Literature43
!!! Chapter: 5
!!! Section: I
!!! Page: 354
!!! Mode: 
!!! Encoder: DJB
**kern
*staff1
*I"Piano
=1-
*clefG2
*k[f#c#g#d#a#]
*B:
*M4/4
2b\
4a#/
4g#/
=2
4.f#/
8e/
2c#/
=3
2b\
4a#/
4g#/
=4
4.f#/
8e/
2c#/
=5
2dd#\
4.ee\
8dd#\
=6
8.cc#\L
16b\Jk
8.cc#\L
16b\Jk
8.a#/L
16g#/Jk
8.a#/L
16g#/Jk
=7
8g#/L
8f#/J
2dd#\
4cc#\
=8
2b\
2r
==
*-
